app/assets/images/heroicons/micro/globe-europe-africa.svg

<svg width="16" height="16" viewBox="0 0 16 16" fill="none" xmlns="http://www.w3.org/2000/svg">
<path fill-rule="evenodd" clip-rule="evenodd" d="M8 1C4.13401 1 1 4.13401 1 8C1 11.866 4.13401 15 8 15C11.866 15 15 11.866 15 8C15 4.13401 11.866 1 8 1ZM5.65653 3.02281C3.79099 3.90272 2.5 5.8006 2.5 8C2.5 11.0376 4.96243 13.5 8 13.5C11.0376 13.5 13.5 11.0376 13.5 8C13.5 7.4168 13.4092 6.8548 13.241 6.32736L12.2942 5.69612C12.1231 5.58208 11.8954 5.60464 11.75 5.75C11.6046 5.89536 11.3769 5.91792 11.2058 5.80388L10.7387 5.49248C10.423 5.28197 10 5.50833 10 5.88783C10 5.9616 10.0172 6.03435 10.0502 6.10033L10.2764 6.55279C10.4234 6.84689 10.5 7.17119 10.5 7.5C10.5 7.82881 10.4234 8.15311 10.2764 8.44721L10.1 8.8C10.0342 8.93153 10 9.07656 10 9.22361V9.33333C10 9.76607 9.85964 10.1871 9.6 10.5333L8.8 11.6C8.61115 11.8518 8.31476 12 8 12C7.44772 12 7 11.5523 7 11V10.618C7 10.2393 6.786 9.893 6.44721 9.72361L6.02492 9.51246C5.39678 9.19839 5 8.55638 5 7.8541C5 6.83011 5.83011 6 6.8541 6H7.56155C7.8037 6 8 5.8037 8 5.56155C8 5.27631 7.73194 5.06702 7.45521 5.1362L6.61996 5.34501C6.23534 5.44116 5.82847 5.32847 5.54813 5.04813C5.2179 4.7179 5.12516 4.2184 5.31483 3.79164L5.65653 3.02281Z" fill="black"/>
</svg>

<svg xmlns="http://www.w3.org/2000/svg" viewBox="0 0 16 16" fill="currentColor" aria-hidden="true" data-slot="icon">
  <path fill-rule="evenodd" d="M8 1a7 7 0 1 0 0 14A7 7 0 0 0 8 1ZM5.657 3.023a5.5 5.5 0 1 0 7.584 3.304l-.947-.63a.431.431 0 0 0-.544.053.431.431 0 0 1-.544.054l-.467-.312a.475.475 0 0 0-.689.608l.226.453a2.119 2.119 0 0 1 0 1.894L10.1 8.8a.947.947 0 0 0-.1.424v.11a2 2 0 0 1-.4 1.2L8.8 11.6A1 1 0 0 1 7 11v-.382a1 1 0 0 0-.553-.894l-.422-.212A1.854 1.854 0 0 1 6.855 6h.707a.438.438 0 1 0-.107-.864l-.835.209a1.129 1.129 0 0 1-1.305-1.553l.342-.77Z" clip-rule="evenodd"/>
</svg>
